X: 1
T: Return from India
O: Cape Breton
S: Winston 'Scotty' Fitzgerald
N: This is the Cape Breton version; Kerr has it with the parts interchanged.
Z: 2015 John Chambers <jc:trillian.mit.edu>
R: reel
M: 4/4
K: A
L: 1/8
e |\
"A"agae agae | "Bm"dcBA "E7"GBBe |\
"A"agae agae | "D"fe"E7"fg "A"a2 fg ||\
"F#m"aAgA "/A"fAeA | "Bm"dcBA "E7"GBed |
"A"ceAc "Bm"dfBa | "E7"gefg "A"a3 |: e |\
"A"dcBA "(F#m)"cAce | "D(Bm)"dcBA "E7"GBEe |\
"A"dcBA "(F#m)"cAeA | "D"fA"E"gA "A"a3 :|
%%center Book48/Return_from_India_RSCDS-A-16-2.abc

%%sep 1 1 500
%%sep 1 1 500

